X:6433
T:Tarnbrook rant
O:england
R:Triple Hornpipe
M:3/2
N:A hamlet on the edge of the Forest of Bowland
L:1/8
K:Dm
FEA2 Bcd2 gfed | e2E4 c2cBAG |\
FEA2 Bcd2 gfef | d2D4 c2cBAG :|
|:gfed gfa2 gfed | e2E4 c2cBAG |\
gfed gfa2 gfed | e2E4 c2cBAG :|
|:BGA2 Bcd2 G2FG | c2E4 c2 cBAG |\
GFA2 Bcd2 GFA2 | d2D4 c2cBAG:|


